X:16926
T:The Lament for Lieutenant John McLennan
Z:Jack Campin <http://www.purr.demon.co.uk/jack/> version 1.0 September 2001
C:Geo. S. McLennan
S:G.S. McLennan, Highland Bagpipe Music book 1, 1929
B:NLS MH.s.234
R:Piobaireachd
m:kc  =   {ged}c
m:pA  =   {GBG}A
m:pc  =   {GdG}c
m:pB  =   {GdG}B
m:qf  =  {fege}f
m:rA  =  {AGdG}A
m:rc  =  {cGdG}c
m:re  =  {eAfA}e
m:rB  =  {BGdG}B
m:~f  =   {gfe}f
m:sn2 =   {geA}n2
m:uB4 = {GdGcG}B4
m:vB3 = {gBGdG}B3
m:wd4 =     {g}Ad2{edfd}e
m:wc4 =     {g}A{d}c2{ecfc}e
m:wB4 =     {g}G{d}B2{eBfB}e
m:xa4 =        a3{GdGeAfA}e
m:xf4 =     {g}f3{GdGeAfA}e
m:xe4 =     {g}e3{GdGeAfA}e
M:4/2
L:1/8
N:Bar 5 of the ground is |:kc3 pA {d}c4 se2{d}c{g}e f4| in the book.
N:GS didn't title the sections himself.
N:The book doesn't indicate that you repeat the ground at the end; it also
N:doesn't indicate that the e in the {ged} group is held as a cadence note.
N:Don't take the way the computer plays this too seriously!
K:Hp
P:Ground
Q:1/2=30
|:   kc3  pA {d}c4 se2   c{g}e    f4|   a2 f{g}e {ag}a4 qf2 e{g}B   pc4 |
     kc3  pA {d}c4 ~f2   e{g}c    e4|{g}d3    pA  {d}c4 kc4         uB4:|
|:   kc3  pA {d}c4 se2{d}c{g}e    f4|   a3    qf     a4  e3    rB {d}c4 |
[1 {g}e3  rc    e4 kc3      pA {d}c4|{g}d3    pA  {d}c4 kc4         uB4:|
[2   kc2 Bpc    f4 se2   c{g}B   pc4|  ~f2 e{g}c     e4 kc4         uB4||
P:First Variation
M:2/2
Q:1/2=18
|: {g}c>rA{g}c>rB {g}e>rc{g}f>re|   a>rea>rf    {g}f>re{g}c>rB |
   {g}c>rA{g}c>rB {g}f>re{g}e>rc|{g}d>rc{g}c>rB {g}c>rB{g}B>rA:|
|: {g}c>rA{g}c>rB {g}e>rc{g}f>re|   a>rea>rf    {g}e>rB{g}c>rB |
[1 {g}e>rc{g}e>rc {g}c>rA{g}c>rB|{g}d>rc{g}c>rB {g}c>rB{g}B>rA:| 
[2 {g}c>rA{g}f>re {g}e>rc{g}c>rB|{g}f>re{g}e>rc {g}c>rB{g}B>rA||
P:Second Variation
M:4/2
Q:1/2=30
|: {g}Ac2{G}A   vB3{G}A {g}ce2c {g}ef2   e|{g}fa2f {g}ea2f {g}ef2e {g}Bc2   B |
   {g}Ac2{G}A   vB3{G}A {g}ef2e {g}ce2   c|{g}Bd2c {g}Ac2B {g}Bc2B {g}AB2{G}A:|
|: {g}Ac2{G}A   vB3{G}A {g}ce2c {g}ef2   e|{g}fa2f {g}ea2f {g}ce2c {g}Bc2   B |
[1 {g}ce2   B {g}ce2  c {g}Ac2B {g}Ac2   B|{g}Bd2c {g}Ac2B {g}Bc2B {g}AB2{G}A:|
[2 {g}Ac2{G}A {g}cf2  c {g}Ae2c {g}Bc2{G}A|{g}Bf2e {g}ce2c {g}Bc2B {g}AB2{G}A||
P:Second Variation Doubling
Q:1/2=40
|: {g}A{d}c2{g}A {d}c4 {g}Ae2{g}A f4|{g}Aa2   A    a4    A   f2c pc4 |
   {g}A{d}c2{g}A {d}c4 {g}Af2{g}A e4|{g}Ad2{g}A {d}c4 {g}A   c2B pB4:|
|: {g}A{d}c2{g}A {d}c4 {g}Ae2{g}A f4|{g}Aa2   A    a4    A   e2c pc4 |
[1 {g}A   e2{g}A    e4 {g}Ad2c   pc4|{g}Ad2{g}A {d}c4 {g}A{d}c2B pB4:|
[2 {g}A{d}c2{g}A    f4 {g}Ae2c   pc4|{g}Af2{g}A    e4 {g}A   c2B pB4||
P:Second Variation Trebling
M:2/2
L:1/16
Q:1/2=30
|: {g}A{d}c2{g}A {d}c4 {g}Ae2{g}A    f4|{g}Aa2A       a4    Af2{g}A    {d}c4 |
   {g}A{d}c2{g}A {d}c4 {g}Af2{g}A    e4|{g}Ad2{g}A {d}c4 {g}A{d}c2{g}G {d}B4:|
|: {g}A{d}c2{g}A {d}c4 {g}Ae2{g}A    f4|{g}Aa2A       a4    Ae2{g}A    {d}c4 |
[1 {g}Ae2{g}A       e4 {g}Ad2{g}A {d}c4|{g}Ad2{g}A {d}c4 {g}A{d}c2{g}G {d}B4:|
[2 {g}A{d}c2{g}A    f4 {g}Ae2{g}A {d}c4|{g}Af2{g}A    e4 {g}A{d}c2{g}G {d}B4||
P:Crunluath
M:4/2
L:1/8
Q:1/2=40
|: wc4 wc4    xe4  xf4|xa4 xa4 {g}Af2c    pc4 |
   wc4 wc4    xf4  xe4|wd4 wc4 {g}A{d}c2B pB4:|
|: wc4 wc4    xe4  xf4|xa4 xa4 {g}Ae2c    pc4 |
[1 xe4 xe4 {g}Ad2c pc4|wd4 wc4 {g}A{d}c2B pc4:|
[2 wc4 xf4 {g}Ae2c pc4|xf4 xe4 {g}A{d}c2B pB4||
P:Crunluath Doubling
M:2/2
L:1/16
Q:1/2=24
|: wc4wc4 xe4xf4|xa4xa4 xf4wc4 |
   wc4wc4 xf4xe4|wd4wc4 wc4wB4:|
|: wc4wc4 xe4xf4|xa4xa4 xe4wc4 |
[1 xe4xe4 wd4wc4|wd4wc4 wc4wB4:|
[2 wc4xf4 xe4wc4|xf4xe4 wc4wB4|]


